src/assets/icon-lock.svg

<?xml version="1.0" encoding="UTF-8"?>
<svg width="24px" height="24px" viewBox="0 0 24 24" version="1.1" xmlns="http://www.w3.org/2000/svg" xmlns:xlink="http://www.w3.org/1999/xlink">
    <title>icon-lock-24</title>
    <defs>
        <path d="M11.6666667,16.3333333 C12.5833333,16.3333333 13.3333333,15.5833333 13.3333333,14.6666667 C13.3333333,13.75 12.5833333,13 11.6666667,13 C10.75,13 10,13.75 10,14.6666667 C10,15.5833333 10.75,16.3333333 11.6666667,16.3333333 Z M16.6666667,8.83333333 L15.8333333,8.83333333 L15.8333333,7.16666667 C15.8333333,4.86666667 13.9666667,3 11.6666667,3 C9.36666667,3 7.5,4.86666667 7.5,7.16666667 L7.5,8.83333333 L6.66666667,8.83333333 C5.75,8.83333333 5,9.58333333 5,10.5 L5,18.8333333 C5,19.75 5.75,20.5 6.66666667,20.5 L16.6666667,20.5 C17.5833333,20.5 18.3333333,19.75 18.3333333,18.8333333 L18.3333333,10.5 C18.3333333,9.58333333 17.5833333,8.83333333 16.6666667,8.83333333 Z M9.08333333,7.16666667 C9.08333333,5.74166667 10.2416667,4.58333333 11.6666667,4.58333333 C13.0916667,4.58333333 14.25,5.74166667 14.25,7.16666667 L14.25,8.83333333 L9.08333333,8.83333333 L9.08333333,7.16666667 Z M16.6666667,18.8333333 L6.66666667,18.8333333 L6.66666667,10.5 L16.6666667,10.5 L16.6666667,18.8333333 Z" id="path-1" fill="currentColor"></path>
    </defs>
    <g id="icon-lock-24" stroke="none" stroke-width="1" fill="none">
        <mask id="mask-2" fill="currentColor">
            <use xlink:href="#path-1"></use>
        </mask>
        <use id="Shape" fill="currentColor" fill-rule="nonzero" xlink:href="#path-1"></use>
    </g>
</svg>

<svg  viewBox="0 0 24 24" xmlns="http://www.w3.org/2000/svg" xmlns:xlink="http://www.w3.org/1999/xlink">
<defs>
<path id="a" d="m11.667 16.333c0.91667 0 1.6667-0.75 1.6667-1.6667 0-0.91667-0.75-1.6667-1.6667-1.6667-0.91667 0-1.6667 0.75-1.6667 1.6667 0 0.91667 0.75 1.6667 1.6667 1.6667zm5-7.5h-0.83333v-1.6667c0-2.3-1.8667-4.1667-4.1667-4.1667-2.3 0-4.1667 1.8667-4.1667 4.1667v1.6667h-0.83333c-0.91667 0-1.6667 0.75-1.6667 1.6667v8.3333c0 0.91667 0.75 1.6667 1.6667 1.6667h10c0.91667 0 1.6667-0.75 1.6667-1.6667v-8.3333c0-0.91667-0.75-1.6667-1.6667-1.6667zm-7.5833-1.6667c0-1.425 1.1583-2.5833 2.5833-2.5833s2.5833 1.1583 2.5833 2.5833v1.6667h-5.1667v-1.6667zm7.5833 11.667h-10v-8.3333h10v8.3333z" fill="currentColor"/>
</defs>
<g fill="currentColor">
<mask>
<use xlink:href="#a"/>
</mask>
<use xlink:href="#a"/>
</g>
</svg>
